src/images/icons/icons_separatly/national_emblem.svg

<svg width="20" height="32" viewBox="0 0 20 32" fill="none" xmlns="http://www.w3.org/2000/svg">
<path d="M9.00548 30.8877C7.26703 29.6252 6.0141 27.7313 5.59123 25.5369H0V2.41992C2.99139 3.86285 5.1527 7.01926 5.38763 10.2959L6.23336 16.7891L5.82615 16.744C4.93344 16.744 4.15035 17.5557 4.15035 18.3523C4.15035 19.1038 4.7455 19.7351 5.52858 19.9004L6.54659 20.1259C8.2224 17.0747 9.17776 14.0836 9.17776 11.1527C9.17776 8.50728 8.81754 5.86191 8.75489 3.15641C8.75489 1.95397 9.24041 0.85674 10.0078 0C10.7909 0.85674 11.2608 1.95397 11.2608 3.15641C11.2608 5.86191 10.8379 8.50728 10.8379 11.1527C10.8379 14.0836 11.7933 17.0747 13.4691 20.1259L14.4871 19.9004C15.2702 19.7351 15.8653 19.0888 15.8653 18.3523C15.8653 17.5406 15.0822 16.744 14.1895 16.744L13.7666 16.8041L14.6124 10.3109C15.0352 7.03429 17.0086 3.86285 20 2.43495V25.5519H14.4244C14.0016 27.7313 12.8113 29.7003 11.0102 30.9028C10.5873 31.1884 10.2271 31.5341 9.99217 32C9.77291 31.5341 9.41269 31.1884 9.00548 30.8877ZM2.64683 17.5557C2.88175 16.6989 3.53955 15.9474 4.38528 15.4814L3.72749 10.1306C3.49256 8.46219 2.77212 6.97417 1.69146 5.75669V17.5406H2.64683V17.5557ZM5.46593 23.9286C5.46593 23.117 5.59123 22.3805 5.76351 21.6289L4.98042 21.4486C3.83712 21.1029 2.9444 20.2461 2.64683 19.1489H1.69146V23.9286H5.46593ZM9.17776 23.9286C9.17776 22.9516 8.39467 22.0949 7.37666 21.9746C7.20438 22.6059 7.07909 23.2372 7.07909 23.9286H9.17776ZM9.17776 25.5519H7.31402C7.61159 26.8145 8.26938 27.9718 9.17776 28.9488V25.5519ZM11.8089 20.5467C11.0885 19.2842 10.4307 17.9615 10.0078 16.5787C9.58496 17.9615 8.92717 19.2842 8.20673 20.5467C8.92717 20.7121 9.52232 21.178 10.0078 21.7041C10.4933 21.178 11.0885 20.7121 11.8089 20.5467ZM12.9522 23.9286C12.9522 23.2372 12.8269 22.6059 12.6547 21.9746C11.6366 22.0949 10.8536 22.9516 10.8536 23.9286H12.9522ZM12.7173 25.5519H10.8536V28.9488C11.7619 27.9568 12.4197 26.8145 12.7173 25.5519ZM18.3399 23.9286V19.1489H17.3845C17.0869 20.2461 16.1785 21.1029 15.0509 21.4486L14.2678 21.6289C14.4401 22.3805 14.5654 23.117 14.5654 23.9286H18.3399ZM18.3399 17.5557V5.75669C17.2592 6.95914 16.4761 8.46219 16.3038 10.1306L15.646 15.4814C16.4918 15.9474 17.1496 16.6839 17.3845 17.5557H18.3399Z" fill="white"/>
</svg>

<svg xmlns="http://www.w3.org/2000/svg" width="20" height="32" fill="none"><path fill="#fff" d="M9.005 30.888a8.64 8.64 0 0 1-3.414-5.351H0V2.42c2.991 1.443 5.153 4.6 5.388 7.876l.845 6.493-.407-.045c-.893 0-1.676.812-1.676 1.608 0 .752.595 1.383 1.379 1.548l1.018.226c1.675-3.051 2.63-6.042 2.63-8.973 0-2.646-.36-5.291-.422-7.997 0-1.202.485-2.3 1.253-3.156.783.857 1.253 1.954 1.253 3.156 0 2.706-.423 5.351-.423 7.997 0 2.93.955 5.922 2.631 8.973l1.018-.226c.783-.165 1.378-.811 1.378-1.548 0-.811-.783-1.608-1.675-1.608l-.423.06.845-6.493C15.035 7.034 17.01 3.863 20 2.435v23.117h-5.576c-.422 2.18-1.613 4.148-3.414 5.35-.423.286-.783.632-1.018 1.098-.22-.466-.58-.812-.987-1.112ZM2.647 17.556c.235-.857.893-1.609 1.738-2.075l-.658-5.35a8.286 8.286 0 0 0-2.036-4.374V17.54h.956v.015Zm2.819 6.373c0-.812.125-1.548.298-2.3l-.784-.18c-1.143-.346-2.036-1.203-2.333-2.3H1.69v4.78h3.775Zm3.712 0c0-.977-.783-1.834-1.801-1.954-.173.63-.298 1.262-.298 1.954h2.099Zm0 1.623H7.314c.298 1.262.955 2.42 1.864 3.397v-3.397Zm2.63-5.005c-.72-1.263-1.377-2.585-1.8-3.968-.423 1.383-1.08 2.705-1.801 3.968.72.165 1.315.631 1.8 1.157.486-.526 1.082-.992 1.802-1.157Zm1.144 3.382c0-.692-.125-1.323-.297-1.954-1.018.12-1.801.977-1.801 1.954h2.098Zm-.235 1.623h-1.863v3.397c.908-.992 1.566-2.135 1.863-3.397Zm5.623-1.623v-4.78h-.956c-.297 1.097-1.206 1.954-2.333 2.3l-.783.18c.172.752.297 1.488.297 2.3h3.775Zm0-6.373v-11.8c-1.08 1.203-1.864 2.706-2.036 4.375l-.658 5.35c.846.466 1.504 1.203 1.738 2.075h.956Z"/></svg>
